X:1
T:Come Away with Jesus
T:Come Away with Jesus
T:Scott Werdebaugh, 2018
T:Scott Werdebaugh, 2018
T:© 2018 Scott Werdebaugh &amp; New Heart Music - You may freely copy and use for Christian worship &amp; devotions with no alterations. All other rights reserved.
T:© 2018 Scott Werdebaugh &amp; New Heart Music - You may freely copy and use for Christian worship &amp; devotions with no alterations. All other rights reserved.
C:Scott Werdebaugh, 2018
Z:© 2018 Scott Werdebaugh & New Heart Music - You may freely copy and use for
Z:Christian worship & devotions with no alterations. All other rights reserved.
%%score 1 ( 2 3 )
L:1/8
Q:1/4=116
M:4/4
K:C
V:1 treble 
V:2 bass 
V:3 bass 
V:1
"^Peacefully" [EG]2 [CE]4 [CE][CE] | [CF]2 [EG]4 [A,C]2 | ([B,D]2 [CE]4) z [EG] | %3
w: “Dear one, you are|wear- y and|tired; * You|
 [FA]4 [FA]2 [DB]2 | [Ec]4 [EG]2 [CE]2 | ([DG]4 [DF]2) [CE]2 | [B,D]6 z2 | %7
w: gave Me your|best and now|need * to|rest.|
 ([EG]2 [CE]2) [CF]2 !fermata![EG]2 | [EG]2 ([Ec]2 [DB]2) [Ec]2 | [FA]6 z2 | %10
w: Close * your eyes|and get * some|sleep;|
 [Fc]2 [DB]2 [CA]2 [EG]2 | [EG]2 ([FA]2 [EG]2) [DF]2 | [CE]6 [EG]2 | ([CA]2 [Ec]2) [DB]4 | %14
w: It is now time|to sleep * and|rest up-|on * My|
 [Ec]6 z2 || [CA]4 [DB]2 [Ec]2 | [EG]4 [CE]2 [EG]2 | [FA]4 [Fc]2 [FA]2 | [EG]6 z2 | %19
w: breast.”|Je- sus is|wait- ing, He’s|reach- ing for|you;|
 [Fc]4 [DB]3 [CA] | [EG]3 [DF] [CE]3 [EG] | [DF]4 [CE]4 | [B,D]6 z2 | [A,C]6 [A,E]2 | %24
w: His arms are|o- pen wide, To|car- ry|you|to the|
 [B,D]6 [A,C]2 | [G,C]6 z2 | [CA]3 [CA] (3[DB]2 [DB]2 [Ec]2 | [Fc]4 [FB]2 [FA]2 | ([EG]6 [DF]2) | %29
w: o- ther|side.|Je- sus wants you to|see our dear|Fa- *|
 [CE]4 z2 [EG]2 | [FA]4 [Fc]2 [Fc]2 | [GB]4 [FA]2 [FA]2 | ([EG]6 [DF]2) | [CE]6 z2 | [Fc]6 [Fc]2 | %35
w: ther. Je-|ho- vah, our|Heav- en- ly|Fa- *|ther.|Come a-|
 ([DB]4 [CA]2) [CA]2 | ([EG]6 [DF]2) | [CE]6 z2 | [G,C]6 [G,E]2 | [B,D]6 [A,C]2 | [G,C]6 z2 | %41
w: way * with|Je- *|sus,|Come a-|way just|now.|
 [Fc]6 [FA]2 | [EG]6 z2 | [CA]6 [CF]2 | [CE]6 z2 | [CF]4 [CA]4 | [Fc]6 [DB]2 | [Ec]6 z2 | %48
w: Rest in|Him;|Rest in|peace;|Live e-|ter- nal-|ly.|
 [Ec]6 [FA]2 | [DG]6 [EG]2 | [FA]6 [Fc]2 | [DB]6 [EG]2 | [FA]2 [Fc]2 ([FB]2 [FA]2) | [EG]6 z2 | %54
w: Hear God|say, “Well|done, My|good and|faith- ful ser- *|vant;|
 [Fc]6 [Fc]2 | [DB]6 [FA]2 | [EG]4 z2 [EG]2 | [CA]4 [Ec]4 | ([DB]6 [CA]2) | [EG]4 z2 [EG]2 | %60
w: En- ter|now your|rest, En-|joy My|Pres- *|ence, E-|
"^rit." [CA]4[Q:1/4=100] [Ec]4 | [Fc]3[Q:1/4=92] [Fc] [DB]3 [Dc] |[Q:1/4=84] [Ec]6 z2 |] %63
w: ter- nal-|ly pre- pared for|you!”|
V:2
 [C,C]2 [C,G,]4 [C,G,][C,G,] | [F,A,]2 [C,C]4 [F,,F,]2 | G,6 z [C,C] | [F,C]4 [F,C]2 [G,,G,]2 | %4
 [C,G,]4 [C,C]2 [C,G,]2 | ([G,B,]4 [G,,G,]2) [C,G,]2 | [G,,G,]6 z2 | %7
 (C2 G,2) [F,A,]2 !fermata![C,C]2 | [C,C]2 G,4 [C,G,]2 | [F,C]6 z2 | %10
 [F,A,]2 [G,,G,]2 [F,,F,]2 [C,C]2 | [C,C]2 C4 [G,B,]2 | [C,G,]6 [C,C]2 | %13
 ([F,,F,]2 [C,G,]2) [G,,G,]4 | [C,G,]6 z2 || [F,,F,]4 [G,,G,]2 [C,G,]2 | [C,C]4 [C,G,]2 [C,C]2 | %17
 [F,C]4 [F,A,]2 [F,C]2 | [C,C]6 z2 | [F,A,]4 [G,,G,]3 [F,,F,] | [C,C]3 [G,B,] [C,G,]3 [C,C] | %21
 [G,B,]4 [C,G,]4 | [G,,G,]6 z2 | [F,,F,]6 [A,,E,]2 | [G,,G,]6 [F,,F,]2 | [C,E,]6 z2 | %26
 [F,A,]3 [F,A,] (3[G,,G,]2 [G,,G,]2 [C,G,]2 | [F,A,]4 [D,G,]2 [C,F,]2 | ([C,G,]6 [G,B,]2) | %29
 [C,G,]4 z2 [C,C]2 | [F,C]4 [F,A,]2 [F,A,]2 | [D,G,]4 [C,F,]2 [C,F,]2 | ([C,C]6 [G,B,]2) | %33
 [C,G,]6 z2 | [F,A,]6 [F,A,]2 | ([G,,G,]4 [F,,F,]2) [F,,F,]2 | ([C,C]6 [G,B,]2) | [C,G,]6 z2 | %38
 [C,E,]6 [C,C]2 | [G,,G,]6 [F,,F,]2 | [C,E,]6 z2 | [F,A,]6 [F,C]2 | [C,C]6 z2 | [F,A,]6 [F,A,]2 | %44
 [C,G,]6 z2 | [F,A,]4 [F,,F,]4 | [F,,A,]6 [G,,G,]2 | [C,G,]6 z2 | [C,G,]6 [F,C]2 | [G,B,]6 [C,C]2 | %50
 [F,C]6 [F,A,]2 | [G,,G,]6 [C,C]2 | [F,C]2 [F,A,]2 ([G,,G,]2 [C,F,]2) | [C,C]6 z2 | %54
 [F,A,]6 [F,A,]2 | [G,,G,]6 [C,F,]2 | [C,C]4 z2 [C,C]2 | [F,A,]4 [C,G,]4 | ([G,,G,]6 [F,,F,]2) | %59
 [C,C]4 z2 [C,C]2 | [F,A,]4 [C,G,]4 | [F,A,]3 [F,A,] [G,,G,]3 [C,F,] | [C,G,]6 z2 |] %63
V:3
 x8 | x8 | (G,,2 C,4) x2 | x8 | x8 | x8 | x8 | C,4 x4 | x2 (C,2 G,,2) x2 | x8 | x8 | %11
 x2 (F,2 C,2) x2 | x8 | x8 | x8 || x8 | x8 | x8 | x8 | x8 | x8 | x8 | x8 | x8 | x8 | x8 | x8 | x8 | %28
 x8 | x8 | x8 | x8 | x8 | x8 | x8 | x8 | x8 | x8 | x8 | x8 | x8 | x8 | x8 | x8 | x8 | x8 | x8 | %47
 x8 | x8 | x8 | x8 | x8 | x8 | x8 | x8 | x8 | x8 | x8 | x8 | x8 | x8 | x8 | x8 |] %63

